src/assets/icons/linkedin.svg

<svg viewBox="0 0 640 640" xmlns="http://www.w3.org/2000/svg"><path d="m512 96h-384.1c-17.6 0-31.9 14.5-31.9 32.3v383.4c0 17.8 14.3 32.3 31.9 32.3h384.1c17.6 0 32-14.5 32-32.3v-383.4c0-17.8-14.4-32.3-32-32.3zm-280.6 384h-66.4v-213.8h66.5v213.8zm-33.2-320c21.3 0 38.5 17.2 38.5 38.5s-17.2 38.5-38.5 38.5-38.5-17.2-38.5-38.5 17.2-38.5 38.5-38.5zm282.1 320h-66.4v-104c0-24.8-.5-56.7-34.5-56.7-34.6 0-39.9 27-39.9 54.9v105.8h-66.4v-213.8h63.7v29.2h.9c8.9-16.8 30.6-34.5 62.9-34.5 67.2 0 79.7 44.3 79.7 101.9z"/></svg>

<svg xmlns="http://www.w3.org/2000/svg" viewBox="0 0 640 640"><!--!Font Awesome Free 7.0.1 by @fontawesome - https://fontawesome.com License - https://fontawesome.com/license/free Copyright 2025 Fonticons, Inc.--><path d="M512 96L127.9 96C110.3 96 96 110.5 96 128.3L96 511.7C96 529.5 110.3 544 127.9 544L512 544C529.6 544 544 529.5 544 511.7L544 128.3C544 110.5 529.6 96 512 96zM231.4 480L165 480L165 266.2L231.5 266.2L231.5 480L231.4 480zM198.2 160C219.5 160 236.7 177.2 236.7 198.5C236.7 219.8 219.5 237 198.2 237C176.9 237 159.7 219.8 159.7 198.5C159.7 177.2 176.9 160 198.2 160zM480.3 480L413.9 480L413.9 376C413.9 351.2 413.4 319.3 379.4 319.3C344.8 319.3 339.5 346.3 339.5 374.2L339.5 480L273.1 480L273.1 266.2L336.8 266.2L336.8 295.4L337.7 295.4C346.6 278.6 368.3 260.9 400.6 260.9C467.8 260.9 480.3 305.2 480.3 362.8L480.3 480z"/></svg>
